X:55
T:Befogom a lovam
M:4/4
L:1/4
K:D
D/C/D/E/ F<D | E/^D/E/F/ AG | F/A/D/E/ F<E | D2 D2 |
A/^G/A/B/ C<A | B/^A/B/c/ e d | c/e/A/B/ c<B | A2 A2 |
dedc | dAFD | d/c/e/d/ c<B | A2 E2 |
D/C/D/E/ F<D | E/^D/E/F/ AG | F/A/D/E/ F<E | D2 D2 |

